CM2T1/251/aimg/camion.svg

<svg clip-rule="evenodd" fill-rule="evenodd" stroke-linecap="round" stroke-linejoin="round" viewBox="0 0 200 200" xmlns="http://www.w3.org/2000/svg"><g stroke="#000" stroke-linecap="butt" stroke-linejoin="round"><path d="m66.9069 84.746c.069.0944-3.4413.4234-4.046.522-2.6333.4291-5.2686.571-7.9235.9135-3.1615.4079-6.2617 1.0961-9.4407 1.4355-6.2171.6638-12.6207.3915-18.8815.3915-.627 0-8.9849-.0918-9.1035 0-.4945.3828-.0792 1.4731-.1686 1.9575-.5232 2.8349-.232 5.7755-.8429 8.6131-1.9363 8.9929-1.1216 18.3279-1.8545 27.4049-.1246 1.544-1.3731 9.719-.1685 10.963 1.5156 1.564 6.5276 1.305 8.5978 1.305 7.7659 0 15.4814.522 23.2646.522 26.0532 0 52.1523.188 78.2234-.653 7.833-.253 15.621.213 23.433-.391 8.489-.657 17.462-.768 25.962-.261 1.937.115 7.13 1.017 8.429-.392 1.305-1.413.711-3.853 1.012-5.481.315-1.708.188-3.494.337-5.22.296-3.442 1.073-6.873 1.517-10.31.867-6.712 2.731-13.836 1.855-20.6189-.791-6.1188-2.201-12.2504-2.698-18.4007-.703-8.7137 1.853-21.6904-9.609-27.0139-2.974-1.3813-6.934-2.5554-10.284-3.2625-8.78-1.8537-18.12-1.6965-27.142-1.6965-7.9 0-15.93.0465-23.77.9135-6.616.7316-13.368 1.8946-20.0617 2.2185-3.3386.1615-6.6113.2873-9.9465.522-4.5902.323-10.065-.4432-13.1496 2.7406-1.5859 1.6369-1.0115 4.7237-1.0115 6.6555 0 4.2297-.4251 8.4538-.8429 12.6587-.3735 3.7583-.6744 7.4403-.6744 11.2231 0 .6229-.0132 1.2259-.1685 1.8271-.1539.5955-1.207.4148-.843.9135z" fill="#ffc900"/><path d="m65.5583 122.584c-11.5529-5.776-22.5209 1.15-27.3107 12.138-1.1724 2.69-1.8981 5.815-1.1801 8.767 2.649 10.89 16.1787 16.517 26.1306 17.364 5.7768.492 11.2251-1.259 15.6783-5.058 5.216-4.449 8.4882-13.48 5.5633-20.061-2.3472-5.281-8.7178-10.992-13.9925-13.15-8.5564-3.5-17.2027-1.51-23.6018 4.889" fill="#100f13"/><path d="m155.077 117.527c-4.683-1.561-9.691.528-13.993 2.36-6.764 2.881-12.77 9.395-14.498 16.69-1.499 6.329.624 14.66 5.563 19.05 2.334 2.074 5.255 3.415 8.092 4.72 4.439 2.042 9.683 2.479 14.498 2.192 2.243-.134 7.969-1.441 9.947-2.36 4.887-2.272 10.058-5.917 12.812-10.79 5.557-9.831-3.012-20.756-11.126-25.625-4.245-2.547-8.901-2.909-13.824-3.54-9.875-1.266-20.194 1.206-26.468 9.272" fill="#100f13"/><path d="m73.9032 55.1505c.2984-.2388.5512-.606.9272-.6744.1659-.0301-.0105.3375 0 .5058.0457.7312.1078 1.4614.1686 2.1916.1268 1.5213.393 3.0293.5058 4.5518.3722 5.0247-.475 10.1604-1.6859 15.004-.1003.4014-.7383 4.9238-.3372 5.0575.6347.2116 3.4877-1.1871 4.2147-1.3487 2.4864-.5525 5.5626-.6533 8.092-.3371.618.0772 2.9012 1.3369 3.3717 1.1801.7016-.2339.6743-5.6999.6743-6.4062 0-4.5594-1.9721-9.2024-2.5287-13.6554-.1583-1.2662.9818-6.6341.8429-6.912-.2195-.4389-3.0316.4549-3.5403.5058-2.5618.2562-5.4018 0-7.9235 0-.9736 0-1.863-.1634-2.6973.3372-.3086.1851-1.1423.8739-.8429.6743.2815-.1877.4944-.463.7586-.6743z" fill="#57d9ff"/><path d="m107.789 81.8711c2.392-.4747 1.129-2.7161.927-5.1418-.407-4.8778-1.484-9.9681-2.866-14.6669-.541-1.8394-1.056-3.7164-1.517-5.5633-.055-.218-.201-.5738 0-.6743 1.522-.7609 5.992.1194 7.417.1686 1.212.0418 9.215-.3947 9.778.1686.48.4799-1.516 3.6388-1.686 4.2146-.867 2.9498-.638 5.5805-.337 8.5978.263 2.6226.621 5.3747 1.349 7.9235.135.4737 1.484 3.3031 1.349 3.7088-.189.5655-2.956.019-3.203 0-3.146-.242-6.015.311-9.104.6744-.413.0485-3.398.8462-2.107.59z" fill="#57d8ff"/><path d="m128.777 54.139c-.016-.0338 4.712.4647 5.901.5057 2.799.0965 9.531-.8819 11.969.3372.113.0562.194.2139.169.3371-.295 1.4746-1.395 2.7841-1.686 4.3832-.649 3.5705-.122 7.3885 1.012 10.7895.899 2.6982 1.907 5.4082 2.866 8.092.036.1014.787 1.6667.505 1.8544-.356.2376-5.522-.3873-6.574-.3371-.844.0402-1.687.1038-2.529.1686-3.54.2723-7.125.9345-10.621 1.5172-.629.1049-2.603.9062-3.203.5058-.18-.1199.325-1.733.337-1.8545.131-1.3081 0-2.739 0-4.046 0-5.0306.387-10.2766-1.011-15.1726-.239-.8349-.65-3.6965-1.686-4.2146" fill="#57d8ff"/><path d="m152.801 56.162c4.1-1.9683 9.805-.3394 14.245-.1686 1.167.0449 4.666-.6309 5.732.1686.288.2156-.327.6543-.337.6743-.344.6885-.337 1.6281-.337 2.3602 0 2.2322.129 4.5238.337 6.7434.302 3.2218.552 7.3078 1.854 10.2836.043.0976 2.14 3.482 2.023 3.5403-.527.2639-2.826-.9207-3.371-1.0115-1.988-.3313-4.036-.434-6.069-.3372-3.709.1766-7.299 1.1106-10.958 1.5173-.356.0395-2.35.5165-2.698.1686-.661-.6612-.039-3.4138 0-4.0461.23-3.6836.701-7.4292.506-11.1265-.08-1.5146-.378-3.2403-.674-4.7204-.14-.6992-1.302-2.45-1.18-3.0345.093-.4478.514-.8136.927-1.0115z" fill="#57d8ff"/><g fill="#575652"><path d="m73.4817 87.8559c-.5382-.2692-.2115-.1686-1.0115-.1686-.5057 0 1.0123.028 1.5173 0 .6197-.0345 1.2342-.1448 1.8544-.1686.8423-.0324 1.6864.0312 2.5288 0 4.3443-.1609 8.615-.8429 12.981-.8429"/><path d="m107.03 88.0244c1.247-.6234 5.144-.4216 6.238-.5057 3.123-.2402 6.292-.5058 9.44-.5058"/><path d="m128.777 87.6873c5.914 0 11.782-.8429 17.702-.8429"/><path d="m153.391 86.17c7.011 0 13.887-.6925 20.904-1.0115"/><path d="m18.6918 120.898c-.7533.377-1.5666.114-2.3602 0-2.4366-.348-6.058.821-7.24915 3.204-.73951 1.479-.84293 3.452-.84293 5.057 0 .305-.17878 4.875-.16858 4.889 1.46697 1.956 12.42936.674 14.66686.674 1.4256 0 2.9637-.142 4.3832 0 1.2974.13 3.1912 1.05 4.5518.506 3.1213-1.248 2.2743-6.247 1.8544-8.766-.1459-.876.3911-2.421 0-3.203-.2919-.584-1.1433-1.361-1.6858-1.686-4.1146-2.469-9.4084-1.017-13.824-.337-2.0932.322-4.3062-.338-6.4062-.338"/><path d="m181.46 122.837c1.508-.231 4.263-.726 5.479.084.985.657.506 3.442.506 4.384 0 .658.111 4.44-.337 4.889-.054.053-4.63 1.642-4.889 1.685-.167.028-.366.094-.506 0-.188-.125-.648-3.069-.674-3.203-.221-1.105-.337-2.246-.337-3.371 0-.778.097-4.367.758-4.468z"/></g><path d="m17.0059 93.672c-.0433.0217 2.8068-.2522 3.5403-.4214 2.2939-.5294 4.5338.1833 6.7434.6743.8569.1904 1.7688.3109 2.5287.8429 2.4927 1.7449 4.689 7.9832 2.5288 10.4522-3.386 3.87-8.7974 4.215-13.3182 4.215-.6244 0-3.5968.758-3.8774.337-.3459-.519.5867-2.927.6743-3.54.506-3.542.8397-6.8994 1.6859-10.2841.1259-.5038-.2538-2.4019-.5058-2.2759z" fill="#ffff1f"/></g></svg>

<?xml version="1.0" encoding="UTF-8" standalone="no"?> <!-- Created with Vectornator for iOS (http://vectornator.io/) --><!DOCTYPE svg PUBLIC "-//W3C//DTD SVG 1.1//EN" "http://www.w3.org/Graphics/SVG/1.1/DTD/svg11.dtd">
<svg style="fill-rule:evenodd;clip-rule:evenodd;stroke-linecap:round;stroke-linejoin:round;" xmlns:vectornator="http://vectornator.io" xmlns:xlink="http://www.w3.org/1999/xlink" xmlns="http://www.w3.org/2000/svg" xml:space="preserve" version="1.1" viewBox="0 0 200 200">
<metadata>
<vectornator:setting key="DisplayWhiteBackground" value="0"/>
<vectornator:setting key="RulersVisible" value="1"/>
<vectornator:setting key="SnapToEdges" value="0"/>
<vectornator:setting key="Units" value="Pixels"/>
<vectornator:setting key="New" value="1"/>
<vectornator:setting key="DynamicGuides" value="0"/>
<vectornator:setting key="SnapToPoints" value="0"/>
<vectornator:setting key="CMYKEnabledKey" value="0"/>
<vectornator:setting key="SnapToGrid" value="0"/>
<vectornator:setting key="SnapToGuides" value="1"/>
<vectornator:setting key="GridSpacing" value="36"/>
</metadata>
<defs/>
<g id="Layer 1" vectornator:layerName="Layer 1">
<g opacity="1">
<path stroke="#000000" stroke-width="1" d="M66.9069+84.746C66.9759+84.8404+63.4656+85.1694+62.8609+85.268C60.2276+85.6971+57.5923+85.839+54.9374+86.1815C51.7759+86.5894+48.6757+87.2776+45.4967+87.617C39.2796+88.2808+32.876+88.0085+26.6152+88.0085C25.9882+88.0085+17.6303+87.9167+17.5117+88.0085C17.0172+88.3913+17.4325+89.4816+17.3431+89.966C16.8199+92.8009+17.1111+95.7415+16.5002+98.5791C14.5639+107.572+15.3786+116.907+14.6457+125.984C14.5211+127.528+13.2726+135.703+14.4772+136.947C15.9928+138.511+21.0048+138.252+23.075+138.252C30.8409+138.252+38.5564+138.774+46.3396+138.774C72.3928+138.774+98.4919+138.962+124.563+138.121C132.396+137.868+140.184+138.334+147.996+137.73C156.485+137.073+165.458+136.962+173.958+137.469C175.895+137.584+181.088+138.486+182.387+137.077C183.692+135.664+183.098+133.224+183.399+131.596C183.714+129.888+183.587+128.102+183.736+126.376C184.032+122.934+184.809+119.503+185.253+116.066C186.12+109.354+187.984+102.23+187.108+95.4471C186.317+89.3283+184.907+83.1967+184.41+77.0464C183.707+68.3327+186.263+55.356+174.801+50.0325C171.827+48.6512+167.867+47.4771+164.517+46.77C155.737+44.9163+146.397+45.0735+137.375+45.0735C129.475+45.0735+121.445+45.12+113.605+45.987C106.989+46.7186+100.237+47.8816+93.5433+48.2055C90.2047+48.367+86.932+48.4928+83.5968+48.7275C79.0066+49.0505+73.5318+48.2843+70.4472+51.4681C68.8613+53.105+69.4357+56.1918+69.4357+58.1236C69.4357+62.3533+69.0106+66.5774+68.5928+70.7823C68.2193+74.5406+67.9184+78.2226+67.9184+82.0054C67.9184+82.6283+67.9052+83.2313+67.7499+83.8325C67.596+84.428+66.5429+84.2473+66.9069+84.746Z" fill="#ffc900" stroke-linecap="butt" opacity="1" stroke-linejoin="round"/>
<path stroke="#000000" stroke-width="1" d="M65.5583+122.584C54.0054+116.808+43.0374+123.734+38.2476+134.722C37.0752+137.412+36.3495+140.537+37.0675+143.489C39.7165+154.379+53.2462+160.006+63.1981+160.853C68.9749+161.345+74.4232+159.594+78.8764+155.795C84.0924+151.346+87.3646+142.315+84.4397+135.734C82.0925+130.453+75.7219+124.742+70.4472+122.584C61.8908+119.084+53.2445+121.074+46.8454+127.473" fill="#100f13" stroke-linecap="butt" opacity="1" stroke-linejoin="round"/>
<path stroke="#000000" stroke-width="1" d="M155.077+117.527C150.394+115.966+145.386+118.055+141.084+119.887C134.32+122.768+128.314+129.282+126.586+136.577C125.087+142.906+127.21+151.237+132.149+155.627C134.483+157.701+137.404+159.042+140.241+160.347C144.68+162.389+149.924+162.826+154.739+162.539C156.982+162.405+162.708+161.098+164.686+160.179C169.573+157.907+174.744+154.262+177.498+149.389C183.055+139.558+174.486+128.633+166.372+123.764C162.127+121.217+157.471+120.855+152.548+120.224C142.673+118.958+132.354+121.43+126.08+129.496" fill="#100f13" stroke-linecap="butt" opacity="1" stroke-linejoin="round"/>
<path stroke="#000000" stroke-width="1" d="M73.9032+55.1505C74.2016+54.9117+74.4544+54.5445+74.8304+54.4761C74.9963+54.446+74.8199+54.8136+74.8304+54.9819C74.8761+55.7131+74.9382+56.4433+74.999+57.1735C75.1258+58.6948+75.392+60.2028+75.5048+61.7253C75.877+66.75+75.0298+71.8857+73.8189+76.7293C73.7186+77.1307+73.0806+81.6531+73.4817+81.7868C74.1164+81.9984+76.9694+80.5997+77.6964+80.4381C80.1828+79.8856+83.259+79.7848+85.7884+80.101C86.4064+80.1782+88.6896+81.4379+89.1601+81.2811C89.8617+81.0472+89.8344+75.5812+89.8344+74.8749C89.8344+70.3155+87.8623+65.6725+87.3057+61.2195C87.1474+59.9533+88.2875+54.5854+88.1486+54.3075C87.9291+53.8686+85.117+54.7624+84.6083+54.8133C82.0465+55.0695+79.2065+54.8133+76.6848+54.8133C75.7112+54.8133+74.8218+54.6499+73.9875+55.1505C73.6789+55.3356+72.8452+56.0244+73.1446+55.8248C73.4261+55.6371+73.639+55.3618+73.9032+55.1505Z" fill="#57d9ff" stroke-linecap="butt" opacity="1" stroke-linejoin="round"/>
<path stroke="#000000" stroke-width="1" d="M107.789+81.8711C110.181+81.3964+108.918+79.155+108.716+76.7293C108.309+71.8515+107.232+66.7612+105.85+62.0624C105.309+60.223+104.794+58.346+104.333+56.4991C104.278+56.2811+104.132+55.9253+104.333+55.8248C105.855+55.0639+110.325+55.9442+111.75+55.9934C112.962+56.0352+120.965+55.5987+121.528+56.162C122.008+56.6419+120.012+59.8008+119.842+60.3766C118.975+63.3264+119.204+65.9571+119.505+68.9744C119.768+71.597+120.126+74.3491+120.854+76.8979C120.989+77.3716+122.338+80.201+122.203+80.6067C122.014+81.1722+119.247+80.6257+119+80.6067C115.854+80.3647+112.985+80.9177+109.896+81.2811C109.483+81.3296+106.498+82.1273+107.789+81.8711Z" fill="#57d8ff" stroke-linecap="butt" opacity="1" stroke-linejoin="round"/>
<path stroke="#000000" stroke-width="1" d="M128.777+54.139C128.761+54.1052+133.489+54.6037+134.678+54.6447C137.477+54.7412+144.209+53.7628+146.647+54.9819C146.76+55.0381+146.841+55.1958+146.816+55.319C146.521+56.7936+145.421+58.1031+145.13+59.7022C144.481+63.2727+145.008+67.0907+146.142+70.4917C147.041+73.1899+148.049+75.8999+149.008+78.5837C149.044+78.6851+149.795+80.2504+149.513+80.4381C149.157+80.6757+143.991+80.0508+142.939+80.101C142.095+80.1412+141.252+80.2048+140.41+80.2696C136.87+80.5419+133.285+81.2041+129.789+81.7868C129.16+81.8917+127.186+82.693+126.586+82.2926C126.406+82.1727+126.911+80.5596+126.923+80.4381C127.054+79.13+126.923+77.6991+126.923+76.3921C126.923+71.3615+127.31+66.1155+125.912+61.2195C125.673+60.3846+125.262+57.523+124.226+57.0049" fill="#57d8ff" stroke-linecap="butt" opacity="1" stroke-linejoin="round"/>
<path stroke="#000000" stroke-width="1" d="M152.801+56.162C156.901+54.1937+162.606+55.8226+167.046+55.9934C168.213+56.0383+171.712+55.3625+172.778+56.162C173.066+56.3776+172.451+56.8163+172.441+56.8363C172.097+57.5248+172.104+58.4644+172.104+59.1965C172.104+61.4287+172.233+63.7203+172.441+65.9399C172.743+69.1617+172.993+73.2477+174.295+76.2235C174.338+76.3211+176.435+79.7055+176.318+79.7638C175.791+80.0277+173.492+78.8431+172.947+78.7523C170.959+78.421+168.911+78.3183+166.878+78.4151C163.169+78.5917+159.579+79.5257+155.92+79.9324C155.564+79.9719+153.57+80.4489+153.222+80.101C152.561+79.4398+153.183+76.6872+153.222+76.0549C153.452+72.3713+153.923+68.6257+153.728+64.9284C153.648+63.4138+153.35+61.6881+153.054+60.208C152.914+59.5088+151.752+57.758+151.874+57.1735C151.967+56.7257+152.388+56.3599+152.801+56.162Z" fill="#57d8ff" stroke-linecap="butt" opacity="1" stroke-linejoin="round"/>
<path stroke="#000000" stroke-width="1" d="M73.4817+87.8559C72.9435+87.5867+73.2702+87.6873+72.4702+87.6873C71.9645+87.6873+73.4825+87.7153+73.9875+87.6873C74.6072+87.6528+75.2217+87.5425+75.8419+87.5187C76.6842+87.4863+77.5283+87.5499+78.3707+87.5187C82.715+87.3578+86.9857+86.6758+91.3517+86.6758" fill="#575652" stroke-linecap="butt" opacity="1" stroke-linejoin="round"/>
<path stroke="#000000" stroke-width="1" d="M107.03+88.0244C108.277+87.401+112.174+87.6028+113.268+87.5187C116.391+87.2785+119.56+87.0129+122.708+87.0129" fill="#575652" stroke-linecap="butt" opacity="1" stroke-linejoin="round"/>
<path stroke="#000000" stroke-width="1" d="M128.777+87.6873C134.691+87.6873+140.559+86.8444+146.479+86.8444" fill="#575652" stroke-linecap="butt" opacity="1" stroke-linejoin="round"/>
<path stroke="#000000" stroke-width="1" d="M153.391+86.17C160.402+86.17+167.278+85.4775+174.295+85.1585" fill="#575652" stroke-linecap="butt" opacity="1" stroke-linejoin="round"/>
<path stroke="#000000" stroke-width="1" d="M18.6918+120.898C17.9385+121.275+17.1252+121.012+16.3316+120.898C13.895+120.55+10.2736+121.719+9.08245+124.102C8.34294+125.581+8.23952+127.554+8.23952+129.159C8.23952+129.464+8.06074+134.034+8.07094+134.048C9.53791+136.004+20.5003+134.722+22.7378+134.722C24.1634+134.722+25.7015+134.58+27.121+134.722C28.4184+134.852+30.3122+135.772+31.6728+135.228C34.7941+133.98+33.9471+128.981+33.5272+126.462C33.3813+125.586+33.9183+124.041+33.5272+123.259C33.2353+122.675+32.3839+121.898+31.8414+121.573C27.7268+119.104+22.433+120.556+18.0174+121.236C15.9242+121.558+13.7112+120.898+11.6112+120.898" fill="#575652" stroke-linecap="butt" opacity="1" stroke-linejoin="round"/>
<path stroke="#000000" stroke-width="1" d="M181.46+122.837C182.968+122.606+185.723+122.111+186.939+122.921C187.924+123.578+187.445+126.363+187.445+127.305C187.445+127.963+187.556+131.745+187.108+132.194C187.054+132.247+182.478+133.836+182.219+133.879C182.052+133.907+181.853+133.973+181.713+133.879C181.525+133.754+181.065+130.81+181.039+130.676C180.818+129.571+180.702+128.43+180.702+127.305C180.702+126.527+180.799+122.938+181.46+122.837Z" fill="#575652" stroke-linecap="butt" opacity="1" stroke-linejoin="round"/>
<path stroke="#000000" stroke-width="1" d="M17.0059+93.672C16.9626+93.6937+19.8127+93.4198+20.5462+93.2506C22.8401+92.7212+25.08+93.4339+27.2896+93.9249C28.1465+94.1153+29.0584+94.2358+29.8183+94.7678C32.311+96.5127+34.5073+102.751+32.3471+105.22C28.9611+109.09+23.5497+109.435+19.0289+109.435C18.4045+109.435+15.4321+110.193+15.1515+109.772C14.8056+109.253+15.7382+106.845+15.8258+106.232C16.3318+102.69+16.6655+99.3326+17.5117+95.9479C17.6376+95.4441+17.2579+93.546+17.0059+93.672Z" fill="#ffff1f" stroke-linecap="butt" opacity="1" stroke-linejoin="round"/>
</g>
</g>
</svg>
